X:1
T:The Galway Rambler
R:Reel
S:Caroline Chevalier
Z:Gwenael Lambrouin 10/Jan/2004
M:2/2
L:1/8
Q:1/4=120
K:G
|  "G" G2dG eGdG | GGdB AGEF | "G" G2dG eGdG | "C" gedB "D" AGEF |
   "G" G2dG eGdG | GGdB AGEF | "Am" GFGA BABd | "C" gedB "D" AGEF
|: "G" g3b  a3b  | gabg aged | "Em" g2bg agab | gedB AGEF |
   "C" g2bg agab | gabg a4   | "Am" b2ag egfa | "C" gedB "D" AGEF :|

